X: 4
T: The Pigtown Fling
R: reel
M: 4/4
L: 1/8
K: Gmaj
|:G2g>e d2e>d|B2g>e d>BA>B|G2g>e d2e>d|B>GA>G E*GG2:||:B>ee>d e2e>g|f>ed>f e>dB>A|B>ee>d e2e>g|f>ga>f g2g2:|


Tune 80	Setting 27314

